dist/images/logo-abbott-white-mobile.svg

<svg width="96" height="24" viewBox="0 0 96 24" fill="none" xmlns="http://www.w3.org/2000/svg">
<path d="M3.94081 7.8459C1.76402 7.8459 0 9.59552 0 11.7539V19.6292C0 21.7889 1.76402 23.5385 3.94081 23.5385H25.7243C27.9011 23.5385 29.6649 21.7889 29.6649 19.6292V3.90783C29.6649 1.74963 27.9011 0 25.7243 0H0V3.92305H24.4319C25.1378 3.92305 25.7094 4.49013 25.7094 5.19007V18.348C25.7094 19.0473 25.1378 19.6157 24.4319 19.6157H5.23234C4.52749 19.6157 3.95532 19.0473 3.95532 18.348V13.0355C3.95532 12.3364 4.52707 11.7687 5.23234 11.7687H21.7538V7.8459H3.94081Z" fill="white"/>
<path d="M80.7687 13.3474C80.7687 16.2926 78.6908 17.9281 75.8532 17.9281C73.0103 17.9281 70.9364 16.2926 70.9364 13.3474C70.9364 10.4039 73.0103 8.7658 75.8532 8.7658C78.6908 8.7658 80.7687 10.4039 80.7687 13.3474ZM60.4752 17.6572H62.6133L63.1638 16.5114C63.8269 17.5237 64.8956 17.9281 66.095 17.9281C68.9547 17.9281 70.0198 15.7764 70.0198 13.3465C70.0198 10.9231 68.9547 8.7658 66.095 8.7658C65.2417 8.7658 64.3451 9.26231 63.6412 10.0353V5.4563H58.9145V6.92785H59.7908C60.3431 6.92785 60.4752 7.20093 60.4752 7.72099V17.6572ZM49.7839 17.6572H51.9221L52.4726 16.5114C53.1365 17.5237 54.2052 17.9281 55.4041 17.9281C58.2643 17.9281 59.3294 15.7764 59.3294 13.3465C59.3294 10.9231 58.2643 8.7658 55.4041 8.7658C54.5522 8.7658 53.6547 9.26231 52.9491 10.0353V5.4563H48.2233V6.92785H49.0996C49.6514 6.92785 49.7839 7.20093 49.7839 7.72099V17.6572ZM40.8687 8.19396H40.9068L42.2764 12.1558H39.5115L40.8687 8.19396ZM39.726 5.4563L36.5449 14.6537C36.1584 15.7764 35.896 16.0363 35.2294 16.0363H34.5801V17.6572H40.1808V16.0363H39.633C39.1157 16.0363 38.4464 15.9798 38.4464 15.6823C38.4464 15.4242 38.5235 15.1515 38.7314 14.5103L38.9628 13.7733H42.8499L43.2484 15.095C43.3246 15.372 43.3442 15.5744 43.3442 15.7627C43.3442 15.9626 42.8686 16.0363 42.2959 16.0363H41.7259V17.6572H48.6789V16.0363H48.0318C47.3687 16.0363 47.1006 15.7764 46.7225 14.6537L43.5383 5.4563H39.726ZM55.9599 13.3465C55.9599 15.2264 55.5256 16.3474 54.4534 16.3474C53.3874 16.3474 52.9491 15.2264 52.9491 13.3465C52.9491 11.4718 53.3874 10.3508 54.4534 10.3508C55.5256 10.3508 55.9599 11.4718 55.9599 13.3465ZM75.8532 10.2386C74.7106 10.2386 74.3103 11.1764 74.3103 13.3474C74.3103 15.5179 74.7106 16.4566 75.8532 16.4566C76.9945 16.4566 77.393 15.5179 77.393 13.3474C77.393 11.1764 76.9945 10.2386 75.8532 10.2386ZM94.3538 13.4968V14.9307C94.3538 15.7764 94.1646 16.2772 93.4403 16.2772C93.0029 16.2772 92.795 15.9618 92.795 15.5744V10.5151H95.1339V9.04273H92.795V5.62408H90.9055C90.7503 7.14914 90.2566 9.04273 88.3515 9.04273H85.3797V5.62408H83.4955C83.3417 7.14914 82.8448 9.04273 80.9424 9.04273V10.5151H82.2181V15.1318C82.2181 17.0092 83.3035 17.9281 85.2626 17.9281C87.5546 17.9281 88.4628 16.9373 88.4628 15.1318V13.4968H86.9447V14.9307C86.9447 15.7764 86.7524 16.2772 86.0303 16.2772C85.5875 16.2772 85.3797 15.9618 85.3797 15.5744V10.5151H89.6338V15.1318C89.6338 17.0092 90.7153 17.9281 92.6788 17.9281C94.9633 17.9281 95.8803 16.9373 95.8803 15.1318V13.4968H94.3538ZM66.6503 13.3465C66.6503 15.2264 66.2168 16.3474 65.1433 16.3474C64.0778 16.3474 63.6412 15.2264 63.6412 13.3465C63.6412 11.4718 64.0778 10.3508 65.1433 10.3508C66.2168 10.3508 66.6503 11.4718 66.6503 13.3465Z" fill="white"/>
</svg>

<svg width="96" height="24" viewBox="0 0 96 24" fill="none" xmlns="http://www.w3.org/2000/svg"><path d="M3.94 7.846C1.765 7.846 0 9.596 0 11.754v7.875c0 2.16 1.764 3.91 3.94 3.91h21.784c2.177 0 3.94-1.75 3.94-3.91V3.908C29.665 1.75 27.902 0 25.725 0H0v3.923h24.432c.706 0 1.277.567 1.277 1.267v13.158c0 .7-.571 1.268-1.277 1.268h-19.2a1.273 1.273 0 01-1.277-1.268v-5.312c0-.7.572-1.267 1.277-1.267h16.522V7.846H3.94zm76.829 5.501c0 2.946-2.078 4.581-4.916 4.581-2.843 0-4.917-1.635-4.917-4.58 0-2.944 2.074-4.582 4.917-4.582 2.838 0 4.916 1.638 4.916 4.581zm-20.294 4.31h2.138l.55-1.146c.664 1.013 1.733 1.417 2.932 1.417 2.86 0 3.925-2.152 3.925-4.582 0-2.423-1.065-4.58-3.925-4.58-.853 0-1.75.496-2.454 1.27v-4.58h-4.727v1.472h.877c.552 0 .684.273.684.793v9.936zm-10.691 0h2.138l.55-1.146c.664 1.013 1.733 1.417 2.932 1.417 2.86 0 3.925-2.152 3.925-4.582 0-2.423-1.065-4.58-3.925-4.58-.852 0-1.75.496-2.455 1.27v-4.58h-4.726v1.472h.877c.551 0 .684.273.684.793v9.936zm-8.915-9.463h.038l1.37 3.962H39.51l1.358-3.962zm-1.143-2.738l-3.181 9.198c-.387 1.122-.649 1.382-1.316 1.382h-.649v1.621h5.6v-1.62h-.547c-.517 0-1.187-.057-1.187-.355 0-.258.078-.53.285-1.172l.232-.737h3.887l.398 1.322c.077.277.096.48.096.668 0 .2-.475.273-1.048.273h-.57v1.621h6.953v-1.62h-.647c-.663 0-.931-.26-1.31-1.383l-3.184-9.198h-3.812zm16.234 7.89c0 1.88-.434 3.001-1.507 3.001-1.066 0-1.504-1.12-1.504-3 0-1.875.438-2.996 1.504-2.996 1.073 0 1.507 1.12 1.507 2.995zm19.893-3.107c-1.142 0-1.543.937-1.543 3.108 0 2.17.4 3.11 1.543 3.11 1.142 0 1.54-.94 1.54-3.11s-.398-3.108-1.54-3.108zm18.5 3.258v1.434c0 .845-.188 1.346-.913 1.346-.437 0-.645-.315-.645-.703v-5.059h2.339V9.043h-2.339V5.624h-1.89c-.155 1.525-.648 3.419-2.553 3.419H85.38V5.624h-1.884c-.154 1.525-.651 3.419-2.554 3.419v1.472h1.276v4.617c0 1.877 1.085 2.796 3.045 2.796 2.292 0 3.2-.99 3.2-2.796v-1.635h-1.518v1.434c0 .845-.193 1.346-.915 1.346-.442 0-.65-.315-.65-.703v-5.059h4.254v4.617c0 1.877 1.081 2.796 3.045 2.796 2.284 0 3.201-.99 3.201-2.796v-1.635h-1.526zm-27.703-.15c0 1.88-.433 3-1.507 3-1.065 0-1.502-1.12-1.502-3 0-1.875.437-2.996 1.502-2.996 1.074 0 1.507 1.12 1.507 2.995z" fill="#fff"/></svg>
